fec/fec/static/icons/output/arrow-target.svg

<svg width="20" height="20" viewBox="0 0 20 20" xmlns="http://www.w3.org/2000/svg"><path d="M11.8653745,0.937814261 C12.5415507,1.07701575 12.9768548,1.73800997 12.8376533,2.41418618 C12.6984518,3.09036239 12.0374576,3.52566641 11.3612814,3.38646493 C10.6115055,3.23211179 9.83667763,3.20661735 9.06058157,3.31569054 C5.36893939,3.83451701 2.79686406,7.24777625 3.31569054,10.9394184 C3.83451701,14.6310606 7.24777626,17.2031359 10.9394184,16.6843094 C14.6310606,16.165483 17.2031359,12.7522237 16.6843094,9.06058158 C16.5882304,8.37694414 17.0645407,7.74485909 17.7481781,7.64878011 C18.4318155,7.55270112 19.0639006,8.02901136 19.1599796,8.7126488 C19.8709641,13.7715659 16.3462682,18.4489952 11.2873512,19.1599796 C6.22843415,19.8709641 1.55100479,16.3462682 0.840020364,11.2873512 C0.129035937,6.22843412 3.65373176,1.55100479 8.71264881,0.840020364 C9.77320934,0.690968301 10.8362101,0.725944603 11.8653745,0.937814261 Z" id="Oval" fill-rule="nonzero"></path><path d="M7.97002371,6.55264335 L7.72617406,10.4306617 C7.69431659,10.9297577 7.87035468,11.4162963 8.22702925,11.7729708 C8.58075272,12.1266943 9.0628036,12.303231 9.56044911,12.2779166 L13.4497077,12.0259871 C12.7544662,13.2072442 11.4698121,14 10,14 C7.790861,14 6,12.209139 6,10 C6,8.53184304 6.79097138,7.24842734 7.97002371,6.55264335 Z" id="Combined-Shape" fill-rule="nonzero"></path><path d="M17.5078057,2.49219427 C17.2386273,2.22301585 16.8835759,2.09015987 16.526614,2.09408253 C16.1739655,2.09813302 15.8194451,2.23601128 15.5471915,2.50826488 L11.0934648,6.96199159 L11.1497004,6.0525489 C11.174006,5.67177214 11.0455188,5.28657793 10.7581501,4.99920922 C10.4890096,4.73006874 10.1339456,4.59726391 9.77698517,4.6012747 C9.42423709,4.60523816 9.0696636,4.74315207 8.79753583,5.01527983 C8.545549,5.26726667 8.4125279,5.5896939 8.38656716,5.9160005 L8.10043091,10.4542585 C8.07609725,10.8354839 8.20479851,11.22041 8.49219427,11.5078057 C8.77824823,11.7938597 9.16118129,11.9227418 9.54139811,11.9034008 L14.078243,11.6102605 C14.4066182,11.5890269 14.7312234,11.4559609 14.9847202,11.2024642 C15.2568479,10.9303364 15.3947618,10.5757629 15.3987253,10.2230148 C15.4027361,9.86605438 15.2699313,9.51099039 15.0007908,9.24184991 C14.7148223,8.9558814 14.3317045,8.82723339 13.9518962,8.84623926 L13.0401103,8.90443337 L17.4917351,4.45280853 C17.7639887,4.18055493 17.901867,3.82603452 17.9059175,3.47338599 C17.9098401,3.11642414 17.7769842,2.76137269 17.5078057,2.49219427 Z" id="Path"></path></svg>

<svg width="20" height="20" viewBox="0 0 20 20" xmlns="http://www.w3.org/2000/svg"><g fill="none" fill-rule="evenodd"><path d="M17.922 8.887a8 8 0 1 1-15.844 2.226 8 8 0 0 1 15.844-2.226Z" stroke="#000" stroke-width="2.5" stroke-linecap="round" stroke-linejoin="round" stroke-dasharray="40.19"/><circle fill="#000" cx="10" cy="10" r="4"/><path stroke="#FFF" stroke-width=".75" d="M17.508 2.492a1.36 1.36 0 0 0-.981-.398 1.405 1.405 0 0 0-.98.414l-4.454 4.454.057-.91a1.357 1.357 0 0 0-1.373-1.45 1.405 1.405 0 0 0-.98.413 1.425 1.425 0 0 0-.41.901L8.1 10.454c-.024.381.105.766.392 1.054.286.286.67.415 1.05.395l4.536-.293a1.405 1.405 0 0 0 1.32-1.387 1.36 1.36 0 0 0-1.446-1.377l-.912.058 4.452-4.451c.272-.272.41-.627.414-.98a1.36 1.36 0 0 0-.398-.98Z"/></g></svg>
